X:535
T: Jgerlust (236), S. 508
N: T0423
O: Luxemburg
S: Singendes Volk, Esch-Alzette, 1937 posth.]
N: Esch-Alzette, hhh Dominik Mller, 1.6.1915
R: Jgerlied]
M: 3/4
L: 1/8
K: A
 | AAE2E2 | FFFFF2
AAAAcB | A4z2
A2c2e2 | d3cB2 | E2B2d2 | c3BA2
A2E2E2 | FFFFF2
AAAAcB | A4z2

